X:1
T:Title
%%score { 1 | 2 }
L:1/8
M:3/4
K:D
V:1 treble nm="Grand Piano"
V:2 bass 
V:1
 z2 z2[Q:1/4=94] [DF][EG] | [FA]2 [Fd]2 [=Fc][FB] | [FA]2 [DF]2 [EG][DF] | [CE]3 [GB] [FA]>[EG] | %4
[M:2/4] [DF]4 |[M:1/4] [DF][EG] |[M:3/4] [FA]2 [Fd]2 [=Fc][FB] | [FA]2 F2 GF | %8
 [DA]3 [CG] [CF]>[CE] |[M:2/4] D4 |[M:1/4] [Fd][FB] |[M:3/4] c2 c2 Bc | [FB]2 [FA]2 [DF]>[DF] | %13
 [DA]3 [D^G] [C=G]>[CE] |[M:2/4] [DF]4 |[M:1/4] [DF][EG] |[M:3/4] [FA]2 [Fd]2 [=Fc][FB] | %17
 [FA]2 F2 GF | [DA]3 [CG] [CF]>[CE] |[M:6/4] .D6 z6 |] %20
V:2
 z2 z2 [D,A,][D,A,] | [D,D]2 [D,A,]2 [D,^G,][D,G,] | [D,A,]2 [D,A,]2 [C,A,][D,A,] | %3
 [A,,A,]3 [A,,A,] [A,,A,]>[A,,A,] |[M:2/4] [D,A,]4 |[M:1/4] [D,A,][D,A,] | %6
[M:3/4] [D,D]2 [D,A,]2 [D,^G,][D,G,] | [D,A,]2 [D,A,D]2 [D,B,D][D,A,D] | %8
 [A,,F,]3 [A,,E,] [A,,A,]>[A,,G,] |[M:2/4] [D,F,]4 |[M:1/4] [D,A,][D,D] | %11
[M:3/4][K:treble] [A,EG]2 [A,EG]2 [A,DG][A,G] | [D,A,]2 [D,D]2 [D,A,]>[D,A,] | %13
 [A,,F,]3 [A,,=F,] [A,,E,]>[A,,A,] |[M:2/4] [D,A,]4 |[M:1/4] [D,A,][D,A,] | %16
[M:3/4] [D,D]2 [D,A,]2 [D,^G,][D,G,] | [D,A,]2 [D,A,D]2 [D,B,D][D,A,D] | %18
 [A,,F,]3 [A,,E,] [A,,A,]>[A,,G,] |[M:6/4] .[D,F,]6 z6 |] %20

